X:526
T:
N:
S:Efter »Florsen» i Burs.
R:vals
O:Gotland, Burs
M:3/4
L:1/8
K:F
C2|LF2 (Ac)(cf)|(fe)(ge) c2|cBABGB|(BA)(FA) C2|
LF2 (Ac)(cf)|(fe)(ge) c2|(cB)(AB)(GA)|F4::d2|
c4 B2|(Ac) (fe) f2|(fe)(gc)(de)|(fg) aa a2|
c4 B2|(Ac) (fe) f2|(Ac)(cB)(GE)|F4:|

